x-pack/platform/plugins/shared/ml/public/application/data_frame_analytics/pages/job_map/components/icons/ml_classification_job.svg

<svg xmlns="http://www.w3.org/2000/svg" width="32" height="32" viewBox="0 0 32 32" fill="#343741">
  <path d="M6.99985 16v5.0002H9.0379C9.0128 21.3301 9 21.6636 9 22c0 .3364.0128.6699.0379.9998H6.99985V28h-1.9997v-5.0002H0v-1.9996h5.00015V16h1.9997zm0-16v5.00015H12v1.9997H6.99985V12h-1.9997V6.99985H0v-1.9997h5.00015V0h1.9997zM22.9998 0v5.00015H28v1.9997h-5.0002V9.0379C22.6699 9.0128 22.3364 9 22 9c-.3364 0-.6699.0128-.9998.0379V6.99985H16v-1.9997h5.0002V0h1.9996z" />
    <path
      fill="#017D73"
      d="M22 10c3.0734 0 5.877 1.1554 8 3.0556v3.2525c-.315-.4427-.6682-.8613-1.0575-1.2506-1.8413-1.8413-4.3386-2.8757-6.9425-2.8757-5.4224 0-9.8182 4.3958-9.8182 9.8182 0 3.3001 1.6282 6.2199 4.1251 8h-3.2513C11.1554 27.877 10 25.0734 10 22c0-6.6274 5.3726-12 12-12zm.9998 8v3.0002H26v1.9996h-3.0002V26h-1.9996v-3.0002H18v-1.9996h3.0002V18h1.9996z"
    />
</svg>

<svg xmlns="http://www.w3.org/2000/svg" width="32" height="32" fill="#343741"><path d="M7 16v5h2.038a13 13 0 0 0 0 2H7v5H5v-5H0v-2h5v-5zM7 0v5h5v2H7v5H5V7H0V5h5V0zm16 0v5h5v2h-5v2.038a13 13 0 0 0-2 0V7h-5V5h5V0z"/><path fill="#017D73" d="M22 10c3.073 0 5.877 1.155 8 3.056v3.252A9.82 9.82 0 1 0 16.307 30h-3.251A11.96 11.96 0 0 1 10 22c0-6.627 5.373-12 12-12m1 8v3h3v2h-3v3h-2v-3h-3v-2h3v-3z"/></svg>
